lib/svgs/state-official.svg

<?xml version="1.0" encoding="UTF-8"?>
<svg width="16px" height="16px" viewBox="0 0 16 16" version="1.1" xmlns="http://www.w3.org/2000/svg" xmlns:xlink="http://www.w3.org/1999/xlink">
    <!-- Generator: sketchtool 51.3 (57544) - http://www.bohemiancoding.com/sketch -->
    <title>community/state-official</title>
    <desc>Created with sketchtool.</desc>
    <defs></defs>
    <g id="Icons" stroke="none" stroke-width="1" fill="none" fill-rule="evenodd">
        <g id="Web" transform="translate(-147.000000, -1136.000000)" fill="#000000">
            <g id="community/state-official" transform="translate(147.000000, 1136.000000)">
                <path d="M8,-1.77635684e-15 C3.56256,-1.77635684e-15 0,3.59376 0,8 C0,12.40624 3.56256,16 8,16 C12.40624,16 16,12.40624 16,8 C16,3.59376 12.40624,-1.77635684e-15 8,-1.77635684e-15 L8,-1.77635684e-15 L8,-1.77635684e-15 Z M9.75008,12.4688 C9.43744,12.56256 9.12496,12.62496 8.78128,12.62496 C8.37504,12.62496 8.0312,12.56256 7.75008,12.4688 C7.4688,12.34368 7.24992,12.18752 7.09376,11.9688 C6.93744,11.75008 6.81248,11.5 6.75008,11.15632 C6.65632,10.84368 6.62496,10.4688 6.62496,10.0312 L6.62496,3.9688 L7.4688,3.81248 L7.4688,5.87504 L10.09376,5.87504 L10.09376,6.59376 L7.4688,6.59376 L7.4688,10.09376 C7.4688,10.4688 7.5,10.78128 7.56256,11 C7.62496,11.24992 7.71872,11.40624 7.84368,11.5312 C7.93744,11.68752 8.09376,11.75008 8.28128,11.81248 C8.43744,11.84368 8.62496,11.87504 8.81248,11.87504 C9.18752,11.87504 9.4688,11.81248 9.65632,11.75008 L10.15632,11.5312 L10.37504,12.21872 C10.24992,12.28128 10.0312,12.37504 9.75008,12.4688 L9.75008,12.4688 L9.75008,12.4688 Z" id="Shape"></path>
            </g>
        </g>
    </g>
</svg>

<svg xmlns="http://www.w3.org/2000/svg" viewBox="0 0 16 16">
    <path d="M8 0C3.563 0 0 3.594 0 8a7.995 7.995 0 1 0 8-8zm1.75 12.469a3.31 3.31 0 0 1-2 0 1.536 1.536 0 0 1-.656-.5 1.936 1.936 0 0 1-.344-.813 3.99 3.99 0 0 1-.125-1.125V3.97l.844-.157v2.063h2.625v.719H7.469v3.5c0 .375.031.687.094.906.062.25.156.406.28.531.094.157.25.22.438.281a2.754 2.754 0 0 0 1.375-.062l.5-.219.219.688a5.058 5.058 0 0 1-.625.25z"/>
</svg>
